X:1
T:Title
%%score { ( 1 3 ) | ( 2 4 ) }
L:1/8
M:4/4
K:A
V:1 treble nm="Grand Piano"
V:3 treble 
V:2 bass 
V:4 bass 
V:1
 z4 z2[Q:1/4=100] [CE]2 | [CE]3 [DF] [CE]2 [CA]2 | [Ec]3 [CEA] [CE]2 [A,EA]2 | [Fd]2 d2 z4 | %4
[M:3/4] [EB]6 |[M:1/4] [DE]2 |[M:4/4] [CE]3 [DF] [CE]2 [CA]2 | [Ec]3 [CEA] [CE]2 [A,EA]2 | %8
 [B,EG]2 [EB]2 [^DB]3 D |[M:3/4] E6 |[M:1/4] E2 |[M:4/4] A3 E C2 E2 | A6 z2 | %13
 [EAc]3 [EGB] [EA]2 [EGB]2 |[M:3/4] c6 |[M:1/4] e2 |[M:4/4] e3 c [EA]2 [EGB]2 | %17
 [EAc]2 [=Ge]2 [Fe]2 [Fd]2 | c3 B A2 G2 |[M:3/4] [CEA]6 |] %20
V:2
 z4 z2 [A,,A,]2 | [A,,A,]3 [A,,A,] [A,,A,]2 [A,,E,]2 | [A,,A,]3 A,, A,,2 C,2 | %3
 .[D,A,]2 [F,A,F][G,B,] [A,E]2 [C,A,]2 |[M:3/4] [E,G,]6 |[M:1/4] [E,G,]2 | %6
[M:4/4] [A,,A,]3 [A,,A,] [A,,A,]2 [A,,E,]2 | [A,,A,]3 A,, A,,2 C,2 | %8
 B,,2 [B,,G,]2 [B,,F,]3 [B,,A,B,] |[M:3/4] [E,G,B,]6 |[M:1/4] E,2 |[M:4/4] A,3 E, C,2 E,2 | %12
 z2 D2 C2 E,2 | A,3 E, C,2 E,2 |[M:3/4] z2[K:treble] E2 E2 |[M:1/4] [A,CA]2 | %16
[M:4/4] [A,CA]3 [A,EA][K:bass] C,2 E,2 | A,2 [C,A,]2 [D,A,]2 [D,A,]2 | %18
 [E,A,E]3 [E,DE] [E,CE]2 [E,DE]2 |[M:3/4] A,,6 |] %20
V:3
 x8 | x8 | x8 | z E, z E c2 [EA]2 |[M:3/4] x6 |[M:1/4] x2 |[M:4/4] x8 | x8 | x8 |[M:3/4] x6 | %10
[M:1/4] x2 |[M:4/4] x8 | z2 F2 E2 [EGB]2 | x8 |[M:3/4] [EA]2 A2 A2 |[M:1/4] x2 |[M:4/4] x8 | x8 | %18
 x8 |[M:3/4] x6 |] %20
V:4
 x8 | x8 | x8 | x8 |[M:3/4] x6 |[M:1/4] x2 |[M:4/4] x8 | x8 | x8 |[M:3/4] x6 |[M:1/4] x2 | %11
[M:4/4] x8 | A,6 z2 | x8 |[M:3/4] A,6[K:treble] |[M:1/4] x2 |[M:4/4] x4[K:bass] x4 | x8 | x8 | %19
[M:3/4] x6 |] %20

